**kern	**silbe	**kern	**silbe	**harmony	**phrase	**leadinstrument	**rhyme	**timestamp	**harte
*ICvox	*	*ICvox	*	*M4/4	*	*	*	*	*M4/4
*VRlead	*	*VRbacking*VRharmonize	*	*	*	*	*	*	*
*Hstimme	*	*Nstimme	*	*	*	*	*	*	*
*B-:	*	*B-:	*	*B-:	*	*	*	*	*B-:
*M4/4	*	*M4/4	*	*	*	*	*	*	*
*clefF4	*	*clefF4	*	*	*	*	*	*	*
r;	.	r;	.	1r;	.	r	.	0	N.C.
=1	=1	=1	=1	=1	=1	=1	=1	=1	=1
*>Letter>A	*>Letter>A	*>Letter>A	*>Letter>A	*>Letter>A	*>Letter>A	*>Letter>A	*>Letter>A	*>Letter>A	*>Letter>A
*>Label>Intro	*>Label>Intro	*>Label>Intro	*>Label>Intro	*>Label>Intro	*>Label>Intro	*>Label>Intro	*>Label>Intro	*>Label>Intro	*>Label>Intro
1r	.	1r	.	1N	newline	r	.	0.139	N.C.
=2	=2	=2	=2	=2	=2	=2	=2	=2	=2
1r	.	1r	.	1N	.	r	.	2.058	N.C.
=3	=3	=3	=3	=3	=3	=3	=3	=3	=3
1r	.	1r	.	1N	.	r	.	3.976	N.C.
=4	=4	=4	=4	=4	=4	=4	=4	=4	=4
1r	.	1r	.	1N	.	r	.	5.895	N.C.
=5	=5	=5	=5	=5	=5	=5	=5	=5	=5
1r	.	1r	.	1FMm	newline	guitar	.	7.813	F:11
=6	=6	=6	=6	=6	=6	=6	=6	=6	=6
1r	.	1r	.	1FMm	.	guitar	.	9.723	F:11
=7	=7	=7	=7	=7	=7	=7	=7	=7	=7
1r	.	1r	.	1FMm	.	guitar	.	11.632	F:11
=8	=8	=8	=8	=8	=8	=8	=8	=8	=8
8e-q	_	.	.	.	.	.	.	.	.
[1f	Ah	1r	.	1FMm	.	guitar	.	13.542	F:11
=9	=9	=9	=9	=9	=9	=9	=9	=9	=9
*	*	*clefG2	*	*	*	*	*	*	*
.	.	16gQ	_	.	.	.	.	.	.
.	.	16aQ	_	.	.	.	.	.	.
1f_	_	[1b-	Ah	1FMm	newline	voice	.	15.451	F:11
=10	=10	=10	=10	=10	=10	=10	=10	=10	=10
1f]	_	1b-]	_	1FMm	.	voice	.	17.305	F:11
=11	=11	=11	=11	=11	=11	=11	=11	=11	=11
8f	la	8b-	la	1B-M	newline	voice	.	19.159	B-:maj
8d	da	8b-	da	.	.	.	.	.	.
8e-	da	8b-	da	.	.	.	.	.	.
[8f	da,	[8b-	da,	.	.	.	.	.	.
8f]	_	8b-]	_	.	.	.	.	.	.
8d	da	8b-	da	.	.	.	.	.	.
8e-	da	8b-	da	.	.	.	.	.	.
[8f	da,	[8a	da,	.	.	.	.	.	.
=12	=12	=12	=12	=12	=12	=12	=12	=12	=12
8f]	_	8a]	_	1B-MM	.	voice	.	21.077	B-:maj7
8d	da	8a	da	.	.	.	.	.	.
8e-	da	8a	da	.	.	.	.	.	.
[8f	da,	[8a	da,	.	.	.	.	.	.
8f]	_	8a]	_	.	.	.	.	.	.
8e-	da	8a	da	.	.	.	.	.	.
8d	da	8a	da	.	.	.	.	.	.
[8c	da,	[8g	da,	.	.	.	.	.	.
=13	=13	=13	=13	=13	=13	=13	=13	=13	=13
8c]	_	8g]	_	1Cmm	.	voice	.	22.995	C:min7
8B-	da	8f	da	.	.	.	.	.	.
8A	da	8f	da	.	.	.	.	.	.
8Gq	_	.	.	.	.	.	.	.	.
[8F	da	[8f	da	.	.	.	.	.	.
8F]	_	8f]	_	.	.	.	.	.	.
4F	da	4e-	da	.	.	.	.	.	.
8r	.	8r	.	.	.	.	.	.	.
=14	=14	=14	=14	=14	=14	=14	=14	=14	=14
1r	.	1r	.	1FMm	.	voice	.	24.914	F:7
=15	=15	=15	=15	=15	=15	=15	=15	=15	=15
8c	da	8e-	da	1Cmm	newline	voice	.	26.832	C:min7
8c	da	8e-	da	.	.	.	.	.	.
8c	da	8e-	da	.	.	.	.	.	.
[8c	da,	[8e-	da,	.	.	.	.	.	.
8c]	_	8e-]	_	.	.	.	.	.	.
8c	da	4f	da	.	.	.	.	.	.
8c	da	.	.	.	.	.	.	.	.
[8c	da,	[8e-	da,	.	.	.	.	.	.
=16	=16	=16	=16	=16	=16	=16	=16	=16	=16
8c]	_	8e-]	_	1FMm	.	voice	.	28.768	F:7
4B-	da	4e-	da	.	.	.	.	.	.
8B-	da	8e-	da	.	.	.	.	.	.
8r	.	8r	.	.	.	.	.	.	.
4B-	da	4e-	da	.	.	.	.	.	.
8A	da	8e-	da	.	.	.	.	.	.
=17	=17	=17	=17	=17	=17	=17	=17	=17	=17
6G	da	6e-	da	1B-M	.	voice	.	30.704	B-:maj
6F	da	6d	da	.	.	.	.	.	.
6F	da	6d	da	.	.	.	.	.	.
4F	da	4d	da	.	.	.	.	.	.
4r	.	4r	.	.	.	.	.	.	.
=18	=18	=18	=18	=18	=18	=18	=18	=18	=18
4r	.	1r	.	1B-M	.	voice	.	32.64	B-:maj
8B-	Goo-	.	.	.	.	.	.	.	.
8A	-dm-	.	.	.	.	.	.	.	.
8A	-mor-	.	.	.	.	.	.	.	.
8B-q	_	.	.	.	.	.	.	.	.
[4.c	-ning	.	.	.	.	.	.	.	.
=19	=19	=19	=19	=19	=19	=19	=19	=19	=19
*>Letter>B	*>Letter>B	*>Letter>B	*>Letter>B	*>Letter>B	*>Letter>B	*>Letter>B	*>Letter>B	*>Letter>B	*>Letter>B
*>Label>Verse	*>Label>Verse	*>Label>Verse	*>Label>Verse	*>Label>Verse	*>Label>Verse	*>Label>Verse	*>Label>Verse	*>Label>Verse	*>Label>Verse
8c]	_	1r	.	2E-M	newline	voice	.	34.576	E-:maj
8Fq	_	.	.	.	.	.	.	.	.
4G	star-	.	.	.	.	.	.	.	.
[8F	-shine	.	.	.	.	.	.	.	.
4F]	_	.	.	2FM	.	voice	.	35.54	F:maj
4r	.	.	.	.	.	.	.	.	.
=20	=20	=20	=20	=20	=20	=20	=20	=20	=20
4r	.	1r	.	2E-M	.	voice	.	36.504	E-:maj
8.r	.	.	.	.	.	.	.	.	.
16~E-	The	.	.	.	.	.	.	.	.
8.c	earth	.	.	2FM	.	voice	.	37.468	F:maj
[16d	says	.	.	.	.	.	.	.	.
4d_	_	.	.	.	.	.	.	.	.
=21	=21	=21	=21	=21	=21	=21	=21	=21	=21
8.d]	_	1r	.	2E-M	.	voice	.	38.432	E-:maj
16c	hel-	.	.	.	.	.	.	.	.
[4e-	-lo!	.	.	.	.	.	A	.	.
4e-]	_	.	.	2FM	.	voice	.	39.396	F:maj
4r	.	.	.	.	.	.	.	.	.
=22	=22	=22	=22	=22	=22	=22	=22	=22	=22
4r	.	1r	.	2E-M	.	voice	.	40.36	E-:maj
8c	You	.	.	.	.	.	.	.	.
[8c	twin	.	.	.	.	.	.	.	.
8c]	_	.	.	2FM	.	voice	.	41.324	F:maj
4d	kle	.	.	.	.	.	.	.	.
[8e-	a	.	.	.	.	.	.	.	.
=23	=23	=23	=23	=23	=23	=23	=23	=23	=23
8e-]	_	1r	.	2E-M	newline	voice	.	42.288	E-:maj
8d	bove	.	.	.	.	.	.	.	.
8c	_	.	.	.	.	.	.	.	.
[8c	us	.	.	.	.	.	.	.	.
4c]	_	.	.	2FM	.	voice	.	43.237	F:maj
4r	.	.	.	.	.	.	.	.	.
=24	=24	=24	=24	=24	=24	=24	=24	=24	=24
4r	.	1r	.	2E-M	.	voice	.	44.185	E-:maj
8B-	we	.	.	.	.	.	.	.	.
[8A	twin	.	.	.	.	.	.	.	.
8A]	_	.	.	2FM	.	voice	.	45.133	F:maj
[4.B-	kle	.	.	.	.	.	.	.	.
=25	=25	=25	=25	=25	=25	=25	=25	=25	=25
8B-]	_	1r	.	1B-M	.	voice	.	46.081	B-:maj
16B-	be-	.	.	.	.	.	.	.	.
[16F	-low	.	.	.	.	.	A	.	.
4F_	_	.	.	.	.	.	.	.	.
4F]	_	.	.	.	.	.	.	.	.
4r	.	.	.	.	.	.	.	.	.
=26	=26	=26	=26	=26	=26	=26	=26	=26	=26
4r	.	1r	.	1FM	.	voice	.	47.978	F:maj
8B-	Good-	.	.	.	.	.	.	.	.
8A	-dm-	.	.	.	.	.	.	.	.
8A	-morn	.	.	.	.	.	.	.	.
8B-q	_	.	.	.	.	.	.	.	.
[4.c	ning	.	.	.	.	.	.	.	.
=27	=27	=27	=27	=27	=27	=27	=27	=27	=27
8c]	_	8r	.	2E-M	newline	voice	.	49.875	E-:maj
8Fq	_	8fq	_	.	.	.	.	.	.
4G	star-	4g	Star-	.	.	.	.	.	.
[8F	-shine	[8f	-shine!	.	.	.	.	.	.
4F]	_	2f_	_	2FM	.	voice	.	50.842	F:maj
4r	.	.	.	.	.	.	.	.	.
=28	=28	=28	=28	=28	=28	=28	=28	=28	=28
4r	.	1f_	_	2E-M	.	voice	.	51.809	E-:maj
8r	.	.	.	.	.	.	.	.	.
8c	You	.	.	.	.	.	.	.	.
8c	lead	.	.	2FM	.	voice	.	52.777	F:maj
[8d	us	.	.	.	.	.	.	.	.
8d]	_	.	.	.	.	.	.	.	.
8c	a-	.	.	.	.	.	.	.	.
=29	=29	=29	=29	=29	=29	=29	=29	=29	=29
2.e-	-long	2f_	_	2E-M	.	voice	B	53.744	E-:maj
.	.	8f]	_	2FM	.	voice	.	54.712	F:maj
.	.	8r	.	.	.	.	.	.	.
4r	.	4r	.	.	.	.	.	.	.
=30	=30	=30	=30	=30	=30	=30	=30	=30	=30
4r	.	4r	.	2E-M	.	voice	.	55.679	E-:maj
4c	My	4f	My	.	.	.	.	.	.
4d	love	4f	love	2DMm	.	voice	.	56.646	D:7
4e-	and	4g-	and	.	.	.	.	.	.
=31	=31	=31	=31	=31	=31	=31	=31	=31	=31
.	.	8fq	_	.	.	.	.	.	.
4d	me	4g	me	2Gm	newline	voice	C	57.614	G:min
8d	as	8g	as	.	.	.	.	.	.
8c	_	8f	_	.	.	.	.	.	.
8d	we	8g	we	2B-M	.	voice	C	58.56	B-:maj
8c	_	8f	_	.	.	.	.	.	.
4B-	sing-	4d	sing-	.	.	.	C	.	.
=32	=32	=32	=32	=32	=32	=32	=32	=32	=32
*	*	*clefF4	*	*	*	*	*	*	*
2B-	-ing	2e-	-ing	2E-M	.	voice	c	59.506	E-:maj
4r	.	4r	.	2B-m	.	voice	.	60.452	B-:min
4F	our	4F	our	.	.	.	.	.	.
=33	=33	=33	=33	=33	=33	=33	=33	=33	=33
*	*	*clefG2	*	*	*	*	*	*	*
4G	ear-	4f-	ear-	2CMm	.	voice	.	61.398	C:7
4B-	-ly	4f-	-ly	.	.	.	.	.	.
4A	mor-	4e-	mor-	2FMm	.	voice	.	62.344	F:7
4c	-ning	4e-	-ning	.	.	.	.	.	.
=34	=34	=34	=34	=34	=34	=34	=34	=34	=34
8B-	sing-	8d	sing-	1B-M	.	voice	C	63.29	B-:maj
8A	-ging	8c	-ging	.	.	.	c	.	.
[4B-	song	[4d	song	.	.	.	B	.	.
4B-]	_	4d]	_	.	.	.	.	.	.
8r	.	8r	.	.	.	.	.	.	.
8f-	Gli	8f-	Gli	.	.	.	.	.	.
=35	=35	=35	=35	=35	=35	=35	=35	=35	=35
*>Letter>C	*>Letter>C	*>Letter>C	*>Letter>C	*>Letter>C	*>Letter>C	*>Letter>C	*>Letter>C	*>Letter>C	*>Letter>C
*>Label>Chorus	*>Label>Chorus	*>Label>Chorus	*>Label>Chorus	*>Label>Chorus	*>Label>Chorus	*>Label>Chorus	*>Label>Chorus	*>Label>Chorus	*>Label>Chorus
8f	_	8f	_	1B-M	newline	voice	.	65.181	B-:maj
8f	ddy	8f	ddy	.	.	.	c	.	.
8f	gloop	8f	gloop	.	.	.	.	.	.
8r	.	8r	.	.	.	.	.	.	.
8f	gloo-	8f	gloo-	.	.	.	.	.	.
8f	-py	8f	-py	.	.	.	c	.	.
8r	.	8r	.	.	.	.	.	.	.
8f-	ni	8f-	ni	.	.	.	.	.	.
=36	=36	=36	=36	=36	=36	=36	=36	=36	=36
8f	_	8f	_	1B-M	.	voice	.	67.115	B-:maj
8f	bby	8f	bby	.	.	.	c	.	.
8f	no-	8f	no-	.	.	.	.	.	.
8f	-bby	8f	-bby	.	.	.	c	.	.
8e-	noo-	8e-	noo-	.	.	.	.	.	.
8d	-by	8d	-by	.	.	.	c	.	.
8c	la	8c	la	.	.	.	B	.	.
[8B-	la	[8B-	la	.	.	.	B	.	.
=37	=37	=37	=37	=37	=37	=37	=37	=37	=37
8B-]	_	8B-]	_	2Cmm	.	voice	.	69.048	C:min7
4A	la	4A	la	.	.	.	B	.	.
[8F	lo	[8F	lo	.	.	.	A	.	.
8F]	_	8F]	_	2FMm	.	voice	.	70.015	F:7
[4.F	lo	4.F	lo	.	.	.	A	.	.
=38	=38	=38	=38	=38	=38	=38	=38	=38	=38
4.F]	_	1r	.	2Cmm	.	voice	.	70.982	C:min7
8r	.	.	.	.	.	.	.	.	.
2r	.	.	.	2FMm	.	voice	.	71.949	F:7
=39	=39	=39	=39	=39	=39	=39	=39	=39	=39
8c	Sa-	8c	Sa-	1FMm	newline	voice	.	72.915	F:7
8c	-bby	8c	-bby	.	.	.	c	.	.
8c	si-	8c	si-	.	.	.	.	.	.
8c	-bby	8c	-bby	.	.	.	c	.	.
8c	sab-	8c	sab-	.	.	.	.	.	.
8c	-ba	8c	-ba	.	.	.	b	.	.
8r	.	8r	.	.	.	.	.	.	.
8B-q	_	8B-q	_	.	.	.	.	.	.
[8c	noo	[8c	noo	.	.	.	A	.	.
=40	=40	=40	=40	=40	=40	=40	=40	=40	=40
8c]	_	8c]	_	1FMm	.	voice	.	74.819	F:7
8c	by	8c	by	.	.	.	.	.	.
8c	ab-	8c	ab-	.	.	.	.	.	.
8c	-ba	8c	-ba	.	.	.	b	.	.
8cq	_	8cq	_	.	.	.	.	.	.
4B-	dab-	4B-	dab-	.	.	.	.	.	.
8A	-ba	8A	-ba	.	.	.	b	.	.
[8F	le	[8F	le	.	.	.	.	.	.
=41	=41	=41	=41	=41	=41	=41	=41	=41	=41
8F]	_	8F]	_	1B-M	.	voice	.	76.723	B-:maj
4F	le	4F	le	.	.	.	.	.	.
8Fq	_	8Fq	_	.	.	.	.	.	.
[8G	lo	[8G	lo	.	.	.	A	.	.
8G]	_	8G]	_	.	.	.	.	.	.
[4.F	lo	4.F	lo	.	.	.	A	.	.
=42	=42	=42	=42	=42	=42	=42	=42	=42	=42
4F]	_	1r	.	1B-Mm	.	voice	.	78.628	B-:7
4r	.	.	.	.	.	.	.	.	.
2r	.	.	.	.	.	.	.	.	.
=43	=43	=43	=43	=43	=43	=43	=43	=43	=43
8G	Doo-	8G	_	2E-M	newline	voice	.	80.532	E-:maj
8G	-by	8G	_	.	.	.	c	.	.
8G	oo-	8G	_	.	.	.	.	.	.
8G	-by	8G	_	.	.	.	c	.	.
8A	wal-	8A	_	2DMm	.	voice	.	81.496	D:7
8c	-la	8c	_	.	.	.	d	.	.
8r	.	8r	.	.	.	.	.	.	.
8Aq	_	8Aq	_	.	.	.	.	.	.
[8B-	doo	[8B-	_	.	.	.	.	.	.
=44	=44	=44	=44	=44	=44	=44	=44	=44	=44
8B-]	_	8B-]	_	2Gm	.	voice	.	82.46	G:min
8B-	by	8B-	_	.	.	.	c	.	.
8B-	ab-	8B-	_	.	.	.	.	.	.
8B-	-ba	8B-	_	.	.	.	b	.	.
8c	dab-	8c	_	2Cm	.	voice	(B	83.425	C:min
8e-	-ba	8e-	_	.	.	.	b)	.	.
4r	.	4r	.	.	.	.	.	.	.
=45	=45	=45	=45	=45	=45	=45	=45	=45	=45
*	*	*clefG2	*	*	*	*	*	*	*
8d	ear-	8f	_	2B-M	.	voice	.	84.389	B-:maj
8d	-ly	8f	_	.	.	.	.	.	.
16cQ	_	.	.	.	.	.	.	.	.
16dQ	_	.	.	.	.	.	.	.	.
8c	mor-	8f	_	.	.	.	.	.	.
8B-	-ning	8f	_	.	.	.	c	.	.
8c	sing-	8f	_	2FMm	.	voice	C	85.353	F:7
4B-	-ing	4f	_	.	.	.	c	.	.
8B-	song	8d	_	.	.	.	B	.	.
=46	=46	=46	=46	=46	=46	=46	=46	=46	=46
4r	.	1r	.	1B-M	.	voice	.	86.317	B-:maj
8B-	Good-	.	.	.	.	.	.	.	.
8A	-dm-	.	.	.	.	.	.	.	.
8A	-mor	.	.	.	.	.	.	.	.
8B-q	_	.	.	.	.	.	.	.	.
[4.c	ning,	.	.	.	.	.	.	.	.
=47	=47	=47	=47	=47	=47	=47	=47	=47	=47
*>Letter>B	*>Letter>B	*>Letter>B	*>Letter>B	*>Letter>B	*>Letter>B	*>Letter>B	*>Letter>B	*>Letter>B	*>Letter>B
*>Label>Verse	*>Label>Verse	*>Label>Verse	*>Label>Verse	*>Label>Verse	*>Label>Verse	*>Label>Verse	*>Label>Verse	*>Label>Verse	*>Label>Verse
8c]	_	4r	.	2E-M	newline	voice	.	88.246	E-:maj
4F	star-	.	.	.	.	.	.	.	.
.	.	4F	Star	.	.	.	.	.	.
[8F	-shine	.	.	.	.	.	D	.	.
4F]	_	2g	_	2FM	.	voice	.	89.233	F:maj
4r	.	.	.	.	.	.	.	.	.
=48	=48	=48	=48	=48	=48	=48	=48	=48	=48
4r	.	[1f	shine	2E-M	.	voice	.	90.219	E-:maj
8r	.	.	.	.	.	.	.	.	.
8c	There's	.	.	.	.	.	.	.	.
6c	love	.	.	2FM	.	voice	.	91.206	F:maj
6d	in	.	.	.	.	.	.	.	.
[6c	your	.	.	.	.	.	.	.	.
=49	=49	=49	=49	=49	=49	=49	=49	=49	=49
4c]	_	1f]	_	2E-M	.	voice	.	92.193	E-:maj
[4e-	skies	.	.	.	.	.	D	.	.
4.e-]	_	.	.	2FM	.	voice	.	93.179	F:maj
8r	.	.	.	.	.	.	.	.	.
=50	=50	=50	=50	=50	=50	=50	=50	=50	=50
*	*	*clefG2	*	*	*	*	*	*	*
4r	.	4r	.	2E-M	.	voice	.	94.166	E-:maj
8c	re-	8f	re-	.	.	.	.	.	.
[8c	-flec	[8f	-flec	.	.	.	.	.	.
8c]	_	8f]	_	2FM	.	voice	.	95.153	F:maj
4d	ting	4f	ting	.	.	.	.	.	.
[8e-	the	[8f	the	.	.	.	.	.	.
=51	=51	=51	=51	=51	=51	=51	=51	=51	=51
8e-]	_	8f]	_	2E-M	newline	voice	.	96.139	E-:maj
8d	sun	8f	sun	.	.	.	.	.	.
8c	_	8f	_	.	.	.	.	.	.
[8c	light	[8f	light	.	.	.	D	.	.
8c]	_	8f]	_	2FM	.	voice	.	97.076	F:maj
8r	.	8r	.	.	.	.	.	.	.
4r	.	4r	.	.	.	.	.	.	.
=52	=52	=52	=52	=52	=52	=52	=52	=52	=52
4r	.	4r	.	2E-M	.	voice	.	98.012	E-:maj
8B-	in	8f	in	.	.	.	.	.	.
[8A	my	[8f	my	.	.	.	.	.	.
6A]	_	6f]	_	2FM	.	voice	.	98.949	F:maj
6B-	lo-	6f	lo-	.	.	.	.	.	.
[6F	-ver's	[6e-	-ver's	.	.	.	.	.	.
=53	=53	=53	=53	=53	=53	=53	=53	=53	=53
8F]	_	8e-]	_	1B-M	.	voice	.	99.885	B-:maj
[8F	eyes	[8d	eyes	.	.	.	D	.	.
4F_	_	4d]	_	.	.	.	.	.	.
4F]	_	8e-	_	.	.	.	.	.	.
.	.	8d	_	.	.	.	.	.	.
4r	.	8c	_	.	.	.	.	.	.
.	.	[8c	_	.	.	.	.	.	.
=54	=54	=54	=54	=54	=54	=54	=54	=54	=54
4r	.	8c]	_	1FM	.	voice	.	101.758	F:maj
.	.	8r	.	.	.	.	.	.	.
8B-	Good-	4r	.	.	.	.	.	.	.
8A	-dm-	.	.	.	.	.	.	.	.
8A	-mor	2r	.	.	.	.	.	.	.
8Fq	_	.	.	.	.	.	.	.	.
[4.G	ning,	.	.	.	.	.	.	.	.
=55	=55	=55	=55	=55	=55	=55	=55	=55	=55
8G]	_	8r	.	2E-M	newline	voice	.	103.632	E-:maj
8Fq	_	8fq	_	.	.	.	.	.	.
4G	star-	4g	Star-	.	.	.	.	.	.
[8F	-shine	[8f	-shine	.	.	.	D	.	.
4F]	_	2f_	_	2FM	.	voice	.	104.606	F:maj
4r	.	.	.	.	.	.	.	.	.
=56	=56	=56	=56	=56	=56	=56	=56	=56	=56
4r	.	1f_	_	2E-M	.	voice	.	105.58	E-:maj
8r	.	.	.	.	.	.	.	.	.
8c	So	.	.	.	.	.	.	.	.
8c	hap-	.	.	2FM	.	voice	.	106.554	F:maj
[8d	-py	.	.	.	.	.	.	.	.
4d_	_	.	.	.	.	.	.	.	.
=57	=57	=57	=57	=57	=57	=57	=57	=57	=57
8d]	_	2f_	_	2E-M	.	voice	.	107.529	E-:maj
16E-	to	.	.	.	.	.	.	.	.
[16e-	be	.	.	.	.	.	C	.	.
4e-_	_	.	.	.	.	.	.	.	.
8e-]	_	4.f]	_	2FM	.	voice	.	108.503	F:maj
8r	.	.	.	.	.	.	.	.	.
4r	.	.	.	.	.	.	.	.	.
.	.	8r	.	.	.	.	.	.	.
=58	=58	=58	=58	=58	=58	=58	=58	=58	=58
4r	.	4r	.	2E-M	.	voice	.	109.477	E-:maj
4c	my	4f	my	.	.	.	.	.	.
4d	love	4f	love	2DMm	.	voice	.	110.451	D:7
4e-	and	4g-	and	.	.	.	.	.	.
=59	=59	=59	=59	=59	=59	=59	=59	=59	=59
8cq	_	8fq	_	.	.	.	.	.	.
4d	me	4g	me	2Gm	newline	voice	C	111.426	G:min
8d	as	8g	as	.	.	.	.	.	.
8c	_	8f	_	.	.	.	.	.	.
8d	we	8g	we	2B-M	.	voice	C	112.37	B-:maj
8c	_	8f	_	.	.	.	.	.	.
4B-	sing-	4d	sing-	.	.	.	(C	.	.
=60	=60	=60	=60	=60	=60	=60	=60	=60	=60
2B-	-ing	2e-	-ing	2E-M	.	voice	c)	113.315	E-:maj
4r	.	4r	.	2B-m	.	voice	.	114.259	B-:min
4F	our	4B-	our	.	.	.	.	.	.
=61	=61	=61	=61	=61	=61	=61	=61	=61	=61
4G	ear-	4f-	ear-	2CMm	.	voice	.	115.204	C:7
4B-	-ly	4f-	-ly	.	.	.	c	.	.
4A	mor-	4e-	mor-	2FMm	.	voice	.	116.148	F:7
4c	-ning	4e-	-ning	.	.	.	c	.	.
=62	=62	=62	=62	=62	=62	=62	=62	=62	=62
8B-	sing-	8d	sing-	1B-M	.	voice	(C	117.093	B-:maj
8A	-ing	8c	-ing	.	.	.	c)	.	.
[4B-	song	[4d	song	.	.	.	B	.	.
4B-]	_	4d]	_	.	.	.	.	.	.
4r	.	4r	.	.	.	.	.	.	.
=63	=63	=63	=63	=63	=63	=63	=63	=63	=63
*>Letter>C	*>Letter>C	*>Letter>C	*>Letter>C	*>Letter>C	*>Letter>C	*>Letter>C	*>Letter>C	*>Letter>C	*>Letter>C
*>Label>Chorus	*>Label>Chorus	*>Label>Chorus	*>Label>Chorus	*>Label>Chorus	*>Label>Chorus	*>Label>Chorus	*>Label>Chorus	*>Label>Chorus	*>Label>Chorus
8f	Glid-	8f	Glid-	1B-M	newline	voice	.	118.982	B-:maj
8f	-dy	8f	-dy	.	.	.	c	.	.
8f	gloop	8f	gloop	.	.	.	.	.	.
8r	.	8r	.	.	.	.	.	.	.
8f	gloo-	8f	gloo-	.	.	.	.	.	.
8f	-py	8f	-py	.	.	.	c	.	.
8r	.	8r	.	.	.	.	.	.	.
8f-	ni	8f-	ni	.	.	.	.	.	.
=64	=64	=64	=64	=64	=64	=64	=64	=64	=64
8f	_	8f	_	1B-M	.	voice	.	120.912	B-:maj
8f	bby	8f	bby	.	.	.	c	.	.
8f	no-	8f	no-	.	.	.	.	.	.
8f	-bby	8f	-bby	.	.	.	c	.	.
8e-	noo-	8e-	noo-	.	.	.	.	.	.
8d	-by	8d	-by	.	.	.	c	.	.
8c	la	8c	la	.	.	.	B	.	.
[8B-	la	[8B-	la	.	.	.	B	.	.
=65	=65	=65	=65	=65	=65	=65	=65	=65	=65
8B-]	_	8B-]	_	2Cmm	.	voice	.	122.841	C:min7
4A	la	4A	la	.	.	.	B	.	.
[8F	lo	[8F	lo	.	.	.	A	.	.
8F]	_	8F]	_	2FMm	.	voice	.	123.806	F:7
[4.F	lo	4.F	lo	.	.	.	A	.	.
=66	=66	=66	=66	=66	=66	=66	=66	=66	=66
4F]	_	1r	.	2Cmm	.	voice	.	124.771	C:min7
4r	.	.	.	.	.	.	.	.	.
2r	.	.	.	2FMm	.	voice	.	125.736	F:7
=67	=67	=67	=67	=67	=67	=67	=67	=67	=67
8c	Sa-	8c	Sa-	1FMm	newline	voice	.	126.7	F:7
8c	-bby	8c	-bby	.	.	.	c	.	.
8c	si-	8c	si-	.	.	.	.	.	.
8c	-bby	8c	-bby	.	.	.	c	.	.
8c	sab-	8c	sab-	.	.	.	.	.	.
8c	-ba	8c	-ba	.	.	.	b	.	.
8r	.	8r	.	.	.	.	.	.	.
8B-q	_	8B-q	_	.	.	.	.	.	.
[8c	noo	[8c	noo	.	.	.	.	.	.
=68	=68	=68	=68	=68	=68	=68	=68	=68	=68
8c]	_	8c]	_	1FMm	.	voice	.	128.606	F:7
8c	by	8c	by	.	.	.	c	.	.
8c	ab-	8c	ab-	.	.	.	.	.	.
8c	-ba	8c	-ba	.	.	.	b	.	.
8cq	_	8cq	_	.	.	.	.	.	.
4B-	dab-	4B-	dab-	.	.	.	.	.	.
8A	-ba	8A	-ba	.	.	.	b	.	.
[8F	le	[8F	le	.	.	.	C	.	.
=69	=69	=69	=69	=69	=69	=69	=69	=69	=69
8F]	_	8F]	_	1B-M	.	voice	.	130.512	B-:maj
4F	le	4F	le	.	.	.	C	.	.
8F	lo	8F	lo	.	.	.	a	.	.
8r	.	8r	.	.	.	.	.	.	.
[4.F	lo	4.F	lo	.	.	.	a	.	.
=70	=70	=70	=70	=70	=70	=70	=70	=70	=70
8F]	_	1r	.	1B-Mm	.	voice	.	132.418	B-:7
8r	.	.	.	.	.	.	.	.	.
4r	.	.	.	.	.	.	.	.	.
2r	.	.	.	.	.	.	.	.	.
=71	=71	=71	=71	=71	=71	=71	=71	=71	=71
8G	Doo-	8G	Doo-	2E-M	newline	voice	.	134.324	E-:maj
8G	-by	8G	-by	.	.	.	c	.	.
8G	oo-	8G	oo-	.	.	.	.	.	.
8G	-by	8G	-by	.	.	.	c	.	.
8A	wal-	8A	wal-	2DMm	.	voice	.	135.291	D:7
8c	-la	8c	-la	.	.	.	b	.	.
8r	.	8r	.	.	.	.	.	.	.
8Aq	_	8Aq	_	.	.	.	.	.	.
[8B-	doo	[8B-	doo	.	.	.	.	.	.
=72	=72	=72	=72	=72	=72	=72	=72	=72	=72
8B-]	_	8B-]	_	2Gm	.	voice	.	136.258	G:min
8B-	by	8B-	by	.	.	.	c	.	.
8B-	ab-	8B-	ab-	.	.	.	.	.	.
8B-	-ba	8B-	-ba	.	.	.	b	.	.
8c	dab-	8c	dab-	2Cm	.	voice	.	137.225	C:min
8e-	-ba	8e-	-ba	.	.	.	b	.	.
4r	.	8r	.	.	.	.	.	.	.
.	.	16e-	ear	.	.	.	.	.	.
.	.	[16f	_	.	.	.	.	.	.
=73	=73	=73	=73	=73	=73	=73	=73	=73	=73
8d	ear-	8f]	_	2B-M	.	voice	.	138.192	B-:maj
8d	-ly	8f	ly	.	.	.	c	.	.
16cQ	_	.	.	.	.	.	.	.	.
16dQ	_	.	.	.	.	.	.	.	.
8c	mor-	8f	mor-	.	.	.	.	.	.
8B-	-ning	8f	-ning	.	.	.	c	.	.
8c	sing-	8f	sing-	2FMm	.	voice	(C	139.159	F:7
4B-	-ing	4f	-ing	.	.	.	c)	.	.
8B-	song!	8d	song!	.	.	.	B	.	.
=74	=74	=74	=74	=74	=74	=74	=74	=74	=74
1r	.	1r	.	1B-M	.	voice	.	140.126	B-:maj
=75	=75	=75	=75	=75	=75	=75	=75	=75	=75
*>Letter>D	*>Letter>D	*>Letter>D	*>Letter>D	*>Letter>D	*>Letter>D	*>Letter>D	*>Letter>D	*>Letter>D	*>Letter>D
*>Label>Bridge	*>Label>Bridge	*>Label>Bridge	*>Label>Bridge	*>Label>Bridge	*>Label>Bridge	*>Label>Bridge	*>Label>Bridge	*>Label>Bridge	*>Label>Bridge
1r	.	1r	.	1A-M	newline	guitar	.	142.06	A-:maj/5
=76	=76	=76	=76	=76	=76	=76	=76	=76	=76
1r	.	1r	.	1A-M	.	guitar	.	143.971	A-:maj/5
=77	=77	=77	=77	=77	=77	=77	=77	=77	=77
1r	.	1r	.	1A-M	.	guitar	.	145.881	A-:maj/5
=78	=78	=78	=78	=78	=78	=78	=78	=78	=78
1r	.	1r	.	1A-M	.	guitar	.	147.792	A-:maj/5
=79	=79	=79	=79	=79	=79	=79	=79	=79	=79
1r	.	1r	.	2E-M	newline	guitar	.	149.703	E-:maj
.	.	.	.	2FM	.	guitar	.	150.639	F:maj
=80	=80	=80	=80	=80	=80	=80	=80	=80	=80
1r	.	1r	.	2E-M	.	guitar	.	151.574	E-:maj
.	.	.	.	2FM	.	guitar	.	152.51	F:maj
=81	=81	=81	=81	=81	=81	=81	=81	=81	=81
4r	.	4r	.	2E-M	.	guitar	.	153.445	E-:maj
8F	Can	8F	Can	.	.	.	.	.	.
8F	ya	8F	ya	.	.	.	.	.	.
4G	hear	4G	hear	2FM	.	guitar	.	154.381	F:maj
4g	me	4g	me	.	.	.	C	.	.
=82	=82	=82	=82	=82	=82	=82	=82	=82	=82
1f	_	[1f	_	2E-M	.	guitar	.	155.316	E-:maj
.	.	.	.	2FM	.	guitar	.	156.252	F:maj
=83	=83	=83	=83	=83	=83	=83	=83	=83	=83
*>Letter>C	*>Letter>C	*>Letter>C	*>Letter>C	*>Letter>C	*>Letter>C	*>Letter>C	*>Letter>C	*>Letter>C	*>Letter>C
*>Label>Chorus	*>Label>Chorus	*>Label>Chorus	*>Label>Chorus	*>Label>Chorus	*>Label>Chorus	*>Label>Chorus	*>Label>Chorus	*>Label>Chorus	*>Label>Chorus
8f	sing-	1f_	_	1B-M	newline	voice	(C	157.187	B-:maj
8d	-ing	.	.	.	.	.	c)	.	.
8d	a	.	.	.	.	.	.	.	.
[8f	song,	.	.	.	.	.	B	.	.
4f]	_	.	.	.	.	.	.	.	.
8d	_	.	.	.	.	.	.	.	.
[8f	hum	.	.	.	.	.	.	.	.
=84	=84	=84	=84	=84	=84	=84	=84	=84	=84
8f]	_	2.f]	_	1B-M	.	voice	.	159.115	B-:maj
8f	ming	.	.	.	.	.	c	.	.
8f	a	.	.	.	.	.	.	.	.
8e-	song?	.	.	.	.	.	B	.	.
12d	_	.	.	.	.	.	.	.	.
[6c	_	.	.	.	.	.	.	.	.
4c]	_	4r	.	.	.	.	.	.	.
=85	=85	=85	=85	=85	=85	=85	=85	=85	=85
1r	.	8B-	Sing-	2Cmm	.	voice	(C	161.043	C:min7
.	.	[8A	-ing	.	.	.	c)	.	.
.	.	8A]	_	.	.	.	.	.	.
.	.	4~G	a	.	.	.	.	.	.
.	.	.	.	2FMm	.	voice	.	162.008	F:7
.	.	[4.F	song	.	.	.	B	.	.
=86	=86	=86	=86	=86	=86	=86	=86	=86	=86
1r	.	4F]	_	2Cmm	.	voice	.	162.972	C:min7
.	.	4r	.	.	.	.	.	.	.
.	.	2r	.	2FMm	.	voice	.	163.936	F:7
=87	=87	=87	=87	=87	=87	=87	=87	=87	=87
8c	Lo-	1r	.	1FMm	newline	voice	.	164.9	F:7
8c	-ving	.	.	.	.	.	c	.	.
8~c	a	.	.	.	.	.	.	.	.
[8c	song	.	.	.	.	.	B	.	.
4c]	_	.	.	.	.	.	.	.	.
4r	.	.	.	.	.	.	.	.	.
=88	=88	=88	=88	=88	=88	=88	=88	=88	=88
8c	lau-	1r	.	1FMm	.	voice	.	166.808	F:7
8c	-ghing	.	.	.	.	.	c	.	.
8c	a	.	.	.	.	.	.	.	.
[8B-	song	.	.	.	.	.	B	.	.
16B-]	_	.	.	.	.	.	.	.	.
[8.A	_	.	.	.	.	.	.	.	.
4A]	_	.	.	.	.	.	.	.	.
=89	=89	=89	=89	=89	=89	=89	=89	=89	=89
8r	.	1r	.	1B-M	.	voice	.	168.717	B-:maj
8G	sing-	.	.	.	.	.	(C	.	.
8F	-ing	.	.	.	.	.	c)	.	.
8~D	the	.	.	.	.	.	.	.	.
4F	song	.	.	.	.	.	B	.	.
4r	.	.	.	.	.	.	.	.	.
=90	=90	=90	=90	=90	=90	=90	=90	=90	=90
1r	.	1r	.	1B-M	.	voice	.	170.625	B-:maj
=91	=91	=91	=91	=91	=91	=91	=91	=91	=91
4G	Sing	1r	.	2E-M	newline	voice	C	172.533	E-:maj
8G	the	.	.	.	.	.	.	.	.
[8A	song	.	.	.	.	.	B	.	.
8A]	_	.	.	2DMm	.	voice	.	173.492	D:7
[8c	_	.	.	.	.	.	.	.	.
8c]	_	.	.	.	.	.	.	.	.
8r	.	.	.	.	.	.	.	.	.
=92	=92	=92	=92	=92	=92	=92	=92	=92	=92
4B-	song	1r	.	2Gm	.	voice	B	174.451	G:min
8B-	a'	.	.	.	.	.	.	.	.
[8c	sing	.	.	.	.	.	C	.	.
8c]	_	.	.	2Cm	.	voice	.	175.41	C:min
[8e-	_	.	.	.	.	.	.	.	.
8e-]	_	.	.	.	.	.	.	.	.
8r	.	.	.	.	.	.	.	.	.
=93	=93	=93	=93	=93	=93	=93	=93	=93	=93
*	*	*clefG2	*	*	*	*	*	*	*
4d	song	4f	song	2B-M	.	voice	B	176.37	B-:maj
4d	song	4f	song	.	.	.	B	.	.
4d	song	4f	song	2Gm	.	voice	B	177.329	G:min
8e-	sing,	8g	sing,	.	.	.	C	.	.
[8c	_	[8e-	_	.	.	.	.	.	.
=94	=94	=94	=94	=94	=94	=94	=94	=94	=94
4c]	_	4e-]	_	2Cmm	.	voice	.	178.288	C:min7
4c	sing	4e-	sing	.	.	.	C	.	.
4c	sing	4e-	sing	2FMm	.	voice	C	179.247	F:7
8d	sing	8f	sing	.	.	.	C	.	.
[8c	_	[8e-	_	.	.	.	.	.	.
=95	=95	=95	=95	=95	=95	=95	=95	=95	=95
8c]	_	8e-]	_	1B-MM	newline	voice	.	180.206	B-:maj7
16d	song	16f	song	.	.	.	B	.	.
16c	_	16e-	_	.	.	.	.	.	.
[4B-	_	[4d	_	.	.	.	.	.	.
4.B-]	_	4.d]	_	.	.	.	.	.	.
8r	.	8r	.	.	.	.	.	.	.
=96	=96	=96	=96	=96	=96	=96	=96	=96	=96
1r	.	1r	.	1B-MM	.	voice	.	182.101	B-:maj7
=97	=97	=97	=97	=97	=97	=97	=97	=97	=97
4d	song	4f	song	2B-M	newline	voice	B	183.995	B-:maj
4d	song	4f	song	.	.	.	B	.	.
4d	song	4f	song	2Gm	.	voice	B	184.959	G:min
8e-	sing,	8g	sing,	.	.	.	C	.	.
[8c	_	[8e-	_	.	.	.	.	.	.
=98	=98	=98	=98	=98	=98	=98	=98	=98	=98
4c]	_	4e-]	_	2Cmm	.	voice	.	185.923	C:min7
4c	sing	4e-	sing	.	.	.	C	.	.
4c	sing	4e-	sing	2FMm	.	voice	C	186.886	F:7
8d	sing	8f	sing	.	.	.	C	.	.
[8c	_	[8e-	_	.	.	.	.	.	.
=99	=99	=99	=99	=99	=99	=99	=99	=99	=99
4c]	_	4e-]	_	1B-MM	.	voice	.	187.85	B-:maj7
16d	song!	16f	song!	.	.	.	B	.	.
16c	_	16e-	_	.	.	.	.	.	.
[8B-	_	[8d	_	.	.	.	.	.	.
2B-]	_	2d]	_	.	.	.	.	.	.
=100	=100	=100	=100	=100	=100	=100	=100	=100	=100
1r	.	1r	.	1B-MM	.	voice	.	189.778	B-:maj7
=101	=101	=101	=101	=101	=101	=101	=101	=101	=101
*>Letter>E	*>Letter>E	*>Letter>E	*>Letter>E	*>Letter>E	*>Letter>E	*>Letter>E	*>Letter>E	*>Letter>E	*>Letter>E
*>Label>Outro	*>Label>Outro	*>Label>Outro	*>Label>Outro	*>Label>Outro	*>Label>Outro	*>Label>Outro	*>Label>Outro	*>Label>Outro	*>Label>Outro
16d	Sing,	1r	.	1B-M	newline	voice	C	191.705	B-:maj
16c	_	.	.	.	.	.	.	.	.
[8B-	_	.	.	.	.	.	.	.	.
4B-]	_	.	.	.	.	.	.	.	.
12b-	sing,	.	.	.	.	.	C	.	.
12g	_	.	.	.	.	.	.	.	.
[12f	_	.	.	.	.	.	.	.	.
8f]	_	.	.	.	.	.	.	.	.
16d	song	.	.	.	.	.	B	.	.
16c	_	.	.	.	.	.	.	.	.
=102	=102	=102	=102	=102	=102	=102	=102	=102	=102
*clefF4	*	*	*	*	*	*	*	*	*
2B-	_	1r	.	2Cmm	.	voice	.	193.616	C:min7
8Gq	_	.	.	.	.	.	.	.	.
4F	sing	.	.	2FMm	.	voice	C	194.572	F:7
8F	a	.	.	.	.	.	.	.	.
8E-q	_	.	.	.	.	.	.	.	.
[8D	song	.	.	.	.	.	B	.	.
=103	=103	=103	=103	=103	=103	=103	=103	=103	=103
2D]	_	1r	.	1B-MM	.	voice	.	195.527	B-:maj7
2r	.	.	.	.	.	.	.	.	.
=104	=104	=104	=104	=104	=104	=104	=104	=104	=104
*clefG2	*	*	*	*	*	*	*	*	*
4r	.	1r	.	1B-MM	.	voice	.	197.439	B-:maj7
8r	.	.	.	.	.	.	.	.	.
[8b-	Yeah,	.	.	.	.	.	.	.	.
8b-]	_	.	.	.	.	.	.	.	.
4g	you	.	.	.	.	.	.	.	.
[8f	can	.	.	.	.	.	.	.	.
=105	=105	=105	=105	=105	=105	=105	=105	=105	=105
*clefF4	*	*	*	*	*	*	*	*	*
8f]	_	[2.f	Sing	1B-M	newline	voice	.	199.35	B-:maj
4d	sing	.	.	.	.	.	C	.	.
8c	a'	.	.	.	.	.	.	.	.
16d	sing	.	.	.	.	.	C	.	.
16c	_	.	.	.	.	.	.	.	.
[8B-	_	.	.	.	.	.	.	.	.
8B-]	_	8f]	_	.	.	.	.	.	.
8cq	_	.	.	.	.	.	.	.	.
[8d	sing	8r	.	.	.	.	C	.	.
=106	=106	=106	=106	=106	=106	=106	=106	=106	=106
8.d]	_	[2c	song	2Cmm	.	voice	.	201.254	C:min7
[16B-	song	.	.	.	.	.	B	.	.
4B-]	_	.	.	.	.	.	.	.	.
8r	.	8c]	_	2FMm	.	voice	.	202.206	F:7
8G	sing	8r	.	.	.	.	C	.	.
8B-	a	4r	.	.	.	.	.	.	.
16d	song	.	.	.	.	.	B	.	.
16c	_	.	.	.	.	.	.	.	.
=107	=107	=107	=107	=107	=107	=107	=107	=107	=107
2B-	_	1d	sing!	1B-MM	.	voice	C	203.158	B-:maj7
2r	.	.	.	.	.	.	.	.	.
=108	=108	=108	=108	=108	=108	=108	=108	=108	=108
1r	.	1r	.	1B-MM	.	voice	.	205.063	B-:maj7
=109	=109	=109	=109	=109	=109	=109	=109	=109	=109
8B-	Sing	[2f	Sing	1B-M	newline	voice	C	206.967	B-:maj
[8c	_	.	.	.	.	.	.	.	.
8c]	_	.	.	.	.	.	.	.	.
8d	a'	.	.	.	.	.	.	.	.
4d	sing	8f]	_	.	.	.	C	.	.
.	.	8r	.	.	.	.	.	.	.
8e-	a	4r	.	.	.	.	.	.	.
[8c	song	.	.	.	.	.	B	.	.
=110	=110	=110	=110	=110	=110	=110	=110	=110	=110
4c]	_	2c	song	2Cmm	.	voice	.	208.854	C:min7
4r	.	.	.	.	.	.	.	.	.
8Fq	_	.	.	.	.	.	.	.	.
4G	sing	2r	.	2FMm	.	voice	C	209.797	F:7
8B-	a	.	.	.	.	.	.	.	.
8d	song	.	.	.	.	.	B	.	.
=111	=111	=111	=111	=111	=111	=111	=111	=111	=111
8e-	_	1d	sing!	1B-MM	.	voice	C	210.74	B-:maj7
16d	_	.	.	.	.	.	.	.	.
16c	_	.	.	.	.	.	.	.	.
[4B-	_	.	.	.	.	.	.	.	.
4B-]	_	.	.	.	.	.	.	.	.
4r	.	.	.	.	.	.	.	.	.
=112	=112	=112	=112	=112	=112	=112	=112	=112	=112
1r	.	1r	.	1B-MM	.	voice	.	212.627	B-:maj7
=113	=113	=113	=113	=113	=113	=113	=113	=113	=113
8e-q	_	8e-q	_	.	.	.	.	.	.
1f	Sing	1f	Sing	1B-M	newline	voice	C	214.514	B-:maj
r;	.	r;	.	1r;	.	r	.	217.773	N.C.
r;	.	r;	.	1r;	.	r	.	219.272	N.C.
*-	*-	*-	*-	*-	*-	*-	*-	*-	*-
!!!BillboardChartDate: 1969/07/12
!!!BillboardPeak: 3
!!!BillboardWeeksOnChart: 13
!!!COC: Oliver
!!!ENC: Nathaniel Condit-Schultz
!!!EST: Awating manual error checking and editing.
!!!OTL: Good Morning Starshine
!!!RDF**chordsym: original McGill chord annotation + (implied pitch class set, with bass pitch in first position)
!!!RDF**harmony: **recip + pitch class of root + harmonic quality
!!!RDF**leadinstrument: original McGill primary instrumentation annotation
!!!RDF**phrase: newline = linebreak in original McGill transcription
!!!RDF**timestamp: McGill audio timestamp in seconds
!!!RDT: 2017/01/12/
!!!SampleActualRank: 3
!!!SampleID#: 0834
!!!SampleTargetRank: 4
